X: 106
T: No_1_Song_of_the_Four_Bears.krn
N: Derived from No_1_Song_of_the_Four_Bears.krn
%%abc-version 2.0
%%abcx-abcm2ps-target-version 5.9.1 (29 Sep 2008)
%%abc-creator hum2abc beta
%%abcx-conversion-date 2019/03/15 08:29:13
%%humdrum-veritas 1423800692
%%humdrum-veritas-data 748789783
%%linebreak <none>
%%barnumbers 0
L: 1/8
M: 2/4
%%staves {1 2}
V: 1 clef=bass
V: 2 clef=bass
K: F
[V:1] C [I:setbarnb 1]| 
[V:2] z | 
[V:1] CCC2 | 
[V:2] G,,G,, G,,G,, | 
[V:1] C4 | 
[V:2] G,,G,, G,,G,, | 
[V:1] C3A, ||  
[V:2] z4 ||  
[V:1] [M:3/4]G,7/G,/ (F,D,) ||  
[V:2] [M:3/4]z6 ||  
[V:1] [M:2/4]D,4 | 
[V:2] [M:2/4]z4 | 
[V:1] D,3G, | 
[V:2] z4 | 
[V:1] G,G,G,2 | 
[V:2] z4 | 
[V:1] G,4 | 
[V:2] z4 | 
[V:1] G,3G, ||  
[V:2] z4 ||  
[V:1] [M:3/4]F,7/F,/ (F,D,) ||  
[V:2] [M:3/4]z6 ||  
[V:1] [M:2/4]D,4 | 
[V:2] [M:2/4]z4 | 
[V:1] C,2C,2 | 
[V:2] z4 | 
[V:1] C,3C, ||  
[V:2] z4 ||  
[V:1] [M:3/4]C,3C, (C,A,,) ||  
[V:2] [M:3/4]z6 ||  
[V:1] [M:2/4]A,,4 | 
[V:2] [M:2/4]z4 | 
[V:1] F,,2F,,2 | 
[V:2] z4 | 
[V:1] F,,3G, | 
[V:2] z4 | 
[V:1] G,3G, | 
[V:2] z4 | 
[V:1] G,4 | 
[V:2] z4 | 
[V:1] G,4 | 
[V:2] z4 | 
[V:1] G,4 | 
[V:2] z4 | 
[V:1] D,3G, | 
[V:2] z4 | 
[V:1] G,G,G,2 | 
[V:2] z4 | 
[V:1] G,4 | 
[V:2] z4 | 
[V:1] G,3G, ||  
[V:2] z4 ||  
[V:1] [M:3/4]F,7/F,/ (F,D,) ||  
[V:2] [M:3/4]z6 ||  
[V:1] [M:2/4]D,4 | 
[V:2] [M:2/4]z4 | 
[V:1] C,2C,2 | 
[V:2] z4 | 
[V:1] C,3C, ||  
[V:2] z4 ||  
[V:1] [M:3/4]C,3C, C,A,, ||  
[V:2] [M:3/4]z6 ||  
[V:1] [M:2/4]A,,4 | 
[V:2] [M:2/4]z4 | 
[V:1] F,,2F,,2 | 
[V:2] z4 | 
[V:1] F,,3C, | 
[V:2] z4 | 
[V:1] !accent!D,/_D,3/ !accent!C,3/C,/ | 
[V:2] !accent!G,,2!accent!G,,2 | 
[V:1] !accent!D,/_D,3/!accent!C,2 |]  
[V:2] !accent!G,,2!accent!G,,2 |]  



